X: 651
T: Yongbuneng zhu niangjia
L: 1/8
M: 2/4
K: G
B B/ A/ G G [I:setbarnb 1]| 
A A/ E/ D D | 
E G A A | 
A d A A | 
G/ E/ D D z | 
B/ B/ B/ A/ G G | 
A/ A/ A/ E/ D D | 
E G A A | 
d> E G G | 
G/ E/ E D z | 
d ed2 | 
g ed2 | 
d G A B | 
d B A G/ E/ | 
D4 |]

@@@ Tune index: 9525
